X:0584
T:Row dow dow.
M:2/4
L:1/8
Q:1/4=128 "With Spirit"
I: ||
Z:Jack Campin * www.campin.me.uk * 2009
K:G
G2|d2d2|d2B>c|d2d2|d2dd|e3  e|(d>c)B>A|(G>A) (B>c)|d2
DD|G2D2|B2G2 |d2B2|g3 d|B2d`d| g2  dc | B2    G2  |G2
P:Chos.
z2|B2B2|B2z2 |d2d2|d3 d|B2d>d| g2  d>c| B2    G2  |G2|]

